icon-themes/breeze_svg/cmd/32/importdialog.svg

<svg viewBox="0 0 32 32" xmlns="http://www.w3.org/2000/svg"><path d="m7 4v24h10v-1h-9v-22h18v17h-7.085938l3.792969-3.792969-.707031-.707031-4 4-1 1 1 1 4 4 .707031-.707031-3.792969-3.792969h8.085938v-.5-.5-18z" fill="#4d4d4d"/><path d="m5 18c-.55228 0-1 .44772-1 1 0 .55229.44772 1 1 1s1-.44771 1-1c0-.55228-.44772-1-1-1zm0 4c-.55228 0-1 .44772-1 1 0 .55229.44772 1 1 1s1-.44771 1-1c0-.55228-.44772-1-1-1zm0 4c-.55228 0-1 .44772-1 1 0 .55229.44772 1 1 1s1-.44771 1-1c0-.55228-.44772-1-1-1z" fill="#f47750"/></svg>

<svg xmlns="http://www.w3.org/2000/svg" viewBox="0 0 32 32">
 <path 
     style="fill:#4d4d4d" 
     d="M 7 4 L 7 28 L 17 28 L 17 27 L 8 27 L 8 5 L 26 5 L 26 22.5 L 18.914062 22.5 L 22.707031 18.707031 L 22 18 L 18 22 L 17 23 L 18 24 L 22 28 L 22.707031 27.292969 L 18.914062 23.5 L 27 23.5 L 27 23 L 27 22.5 L 27 4 L 7 4 z "
     />
 <path 
     style="fill:#f47750" 
     d="M 5 18 C 4.44772 18 4 18.44772 4 19 C 4 19.55229 4.44772 20 5 20 C 5.55228 20 6 19.55229 6 19 C 6 18.44772 5.55228 18 5 18 z M 5 22 C 4.44772 22 4 22.44772 4 23 C 4 23.55229 4.44772 24 5 24 C 5.55228 24 6 23.55229 6 23 C 6 22.44772 5.55228 22 5 22 z M 5 26 C 4.44772 26 4 26.44772 4 27 C 4 27.55229 4.44772 28 5 28 C 5.55228 28 6 27.55229 6 27 C 6 26.44772 5.55228 26 5 26 z "
     />
</svg>
